X:1
T:Title
%%score { ( 1 4 ) | ( 2 3 ) }
L:1/8
Q:1/4=100
M:6/8
K:F
V:1 treble nm="Grand Piano"
V:4 treble 
V:2 bass 
V:3 bass 
V:1
 A2 A AGF | c2 c c2 A | [EG]2 [EG] [EG][DF][EG] | A2 B A3 | A2 A AGF | c2 c c2 A | G2 G Gce | %7
w: Lida~Shivers~Leech * * * *|||||||
 e2 d [Ec]3 | [Fc]3 [Fd]2 [Fd] | [Fc]6 | [Ec]3 [Ed]2 [Ed] | c6 | [Ec]2 [EG] [EG][DF][EG] | %13
w: ||||||
 A2 B c3 | G3 e2 d | c6 | [DEB][DEB][DEB] [DEB][CEA][CEG] | z3 [Fc]3 | %18
w: |||||
 [DEB][DEB][DEB] [DEB][CEA][CEG] | [Fc]6 | [Fc]3 [Fd]2 [Fd] | c6 | [Ec]3 [Ec]2 [Ec] | [Ff]6 |] %24
w: ||||||
V:2
 z3 .C3 | [F,A,F]2 [G,B,E] [A,CF]2[K:bass] [F,CF] | [C,C]2 [C,C] [C,C][D,A,][C,C] | %3
 [F,CF]2 [F,DF] [F,CF]3 | z3 .C3 | [F,A,F]2 [G,B,E] [A,CF]2 [F,CF] | %6
 [G,CE]2 [G,CE] [G,CE]2 [G,CG] | [G,=B,G]2 [G,B,F][K:bass] [C,C]3 | [F,A,]3 [B,,B,]2 [B,,B,] | %9
 A,3 A,3 | [C,B,]3 [C,B,]2 [C,B,] | .[A,F]3 z3 | [C,G,]2 [C,C] [C,C][D,A,][C,C] | %13
 [F,CF]2 [G,CE] [A,CF]3 | [G,CE]3 [G,=B,G]2 [G,B,F] | .G,3 z3 | C,C,C, C,C,C, | F,2 G, A,2 F, | %18
 C,C,C, C,C,B, | z C2 z3 | [F,A,]3 [B,,B,]2 [B,,B,] | .[A,F]3 z3 | [C,B,]3 [C,B,]2 [C,B,] | %23
 [F,A,]6 |] %24
V:3
 [F,CF]2 [F,CF] [F,F]-[F,B,F][F,A,] | x5[K:bass] x | x6 | x6 | [F,CF]2 [F,CF] [F,F]-[F,B,F][F,A,] | %5
 x6 | x6 | x3[K:bass] x3 | x6 | F,C,F, z G,F, | x6 | F,-[F,-A,][F,-C] [F,-C][F,-B,][F,A,] | x6 | %13
 x6 | x6 | C,2- [C,-A,] [C,B,]3 | x6 | x6 | x6 | .A,2 B, A,G,F, | x6 | %21
 F,-[F,-A,][F,-C] [F,-C][F,-B,][F,A,] | x6 | x6 |] %24
V:4
 x6 | x6 | x6 | x6 | x6 | x6 | x6 | x6 | x6 | x6 | x6 | z FA AGF | x6 | x6 | x6 | E2 F G3 | x6 | %17
 [CFA]2 [CFB] C2 A, | x6 | .C3 C3 | x6 | z FA AGF | x6 | x6 |] %24

